storage/app/icons/phosphoricons/bold/usb-bold.svg

<svg xmlns="http://www.w3.org/2000/svg" fill="currentColor" viewBox="0 0 256 256"><path d="m251.2 118.4-48-36A12 12 0 0 0 184 92v24H76V76h22.06a36 36 0 1 0 0-24H72a20 20 0 0 0-20 20v44H12a12 12 0 0 0 0 24h40v44a20 20 0 0 0 20 20h24v4a20 20 0 0 0 20 20h32a20 20 0 0 0 20-20v-32a20 20 0 0 0-20-20h-32a20 20 0 0 0-20 20v4H76v-40h108v24a12 12 0 0 0 19.2 9.6l48-36a12 12 0 0 0 0-19.2M132 52a12 12 0 1 1-12 12 12 12 0 0 1 12-12m-12 128h24v24h-24Zm88-40v-24l16 12Z"/></svg>

<svg xmlns="http://www.w3.org/2000/svg" viewBox="0 0 256 256" fill="currentColor"><path d="M251.2,118.4l-48-36A12,12,0,0,0,184,92v24H76V76H98.06a36,36,0,1,0,0-24H72A20,20,0,0,0,52,72v44H12a12,12,0,0,0,0,24H52v44a20,20,0,0,0,20,20H96v4a20,20,0,0,0,20,20h32a20,20,0,0,0,20-20V176a20,20,0,0,0-20-20H116a20,20,0,0,0-20,20v4H76V140H184v24a12,12,0,0,0,19.2,9.6l48-36a12,12,0,0,0,0-19.2ZM132,52a12,12,0,1,1-12,12A12,12,0,0,1,132,52ZM120,180h24v24H120Zm88-40V116l16,12Z"/></svg>
